X: 528
T: Drunkards Hiccoughs
B: jims roots
M:3/4
L:1/8
R: Waltz
Q: 1/4=100
K:A
V:1 
%N:A version of "Jack of Diamonds"/"Rye Whiskey"/"Drunken Hiccups"
%N:Smith was accompanied by a banjo player who played the pizz.
%N:notes in the 3rd strain, while Smith played a low 'A' drone note.
%N:AEac# tuning (fiddle)
%Q:"Moderate"
%D: http://soundarchives.berea.edu/items/show/830
ED | "A"C2E2 FE | C2[A,2E2][A,2E2] | "D"{E}F2A2 AB | "A"c4 ED | C2E2FE |
C2A,2E2 | "D"F2A2 B2 | "A"A4 :|  fc | e3e- fe | c2A2E2 |
"D"F2 A2 AB | "A"c4 fc | e3 e- fe | c2E2E2 | "D"{E}F2A2B2 | "A"A4 ||
|: "A"c2A2E2 | c2A2E2 | [M:1/4]E2 | [M:3/4] "D"F2A2 B2 | "A"A4 :|
V:A,2 
 | "A"c2A2E2 | c2A2E2 | [M:1/4]E2 | [M:3/4] "D"F2A2 A-B | "A"c4[A,2] |
% abcbook-tune_id 6298c245cc36605e90b622e8


% abcbook-boost 0
% abcbook-tablature 
% abcbook-transpose 
% abcbook-lastupdated 1654178374046
% abcbook-soundfonts 
% abcbook-repeats 1


